X:9
T:New Camptown Races 2
C:Franke Wakefield
S:Mike Nelsons version(incomplete)
M:4/4
L:1/8
K:Bb
G,2!|:"Bb"B,A, B,C DC D^D |FG F^D  =DC B,D|^D=D ^DF GA BG|F2 (3FFF F2Z|1
G^F GA BA BA|G^F GA BA B=B|c2B2A2G2|F2D<^D2=D2C2:|2^F<G2=F2D2 DD |^F<G2=
F2D2 DD|DC B,D CB, A,C| B,6|| 
G2!|:"Gm"G^F GA BA Bc|dc Bd cB Ac|BA GB AG ^FA| GF GA G2|"C7"cc B2 A2 GB
|cc B2 A2 GB|cc B2 A2 GG|"F"FF ^D2 =DD2 CC|"Bb"F,F, F
,D D^D FA|BA Bc BG FD|"Eb"^D=D ^D=D (3^DFG BG|"Bb"F2 FF F2 (3G,DB|"Gm"g2
f2d2 (3G,Dd|b2 g2 f2 BB|"C"dc Bd "F"cB Ac|"Bb"B2 BB B2||
